X:495
T:Ormond House. (p)1702.PLFD.495
M:4/4
L:1/4
Q:1/2=80
S:Playford, Dancing Master,Supp.to 11th Ed.,1702.
O:England
Z:Chris Partington.
K:F
FADd|^ceAe|fdad|^ceAe|
fdBG|Eece|=BeAB|^GA/=B/BA:|
|:AcGc/B/|AcFf|=BfGg|^ceAe|
afd=B|ge^ce|Af=Bg|^cd/e/ed:|
